!!!COM: Palestrina, Giovanni Perluigi da
!!!OPR: Missa In semidupl. maj. (I)
!!!OMD: Credo
!!!OTL: Et incarnatus
**kern	**kern	**kern	**kern	**kern
*Ibass	*Itenor	*Itenor	*Icalto	*Icant
!Bassus	!Tenor 2	!Tenor 1	!Altus	!Cantus
*clefF4	*clefGv2	*clefGv2	*clefG2	*clefG2
*k[b-]	*k[b-]	*k[b-]	*k[b-]	*k[b-]
*F:ion	*F:ion	*F:ion	*F:ion	*F:ion
*M4/2	*M4/2	*M4/2	*M4/2	*M4/2
=57	=57	=57	=57	=57
1r	0c	0F	[0f	0a
[1F	.	.	.	.
=58	=58	=58	=58	=58
1F]	1A	0c	1f]	2.a
.	.	.	.	4b-
1C	1G	.	1e	1cc
=59	=59	=59	=59	=59
1F	1A	1c	1f	1a
[1BB-	[1F	[1B-	[1d	2.b-
.	.	.	.	4cc
=60	=60	=60	=60	=60
1BB-]	1F]	1B-]	1d]	1dd
1C	1c	1G	1e	[1cc
=61	=61	=61	=61	=61
0FF	0c	0A	0f	1cc]
.	.	.	.	1a
=62	=62	=62	=62	=62
1r	1r	1r	1r	1r
1BB-	1d	1F	1f	1b-
=63	=63	=63	=63	=63
1BB-	1d	1B-	1.f	2b-
.	.	.	.	2f
1FF	1c	1A	.	2.a
.	.	.	2f	.
.	.	.	.	4b-
=64	=64	=64	=64	=64
1C	0c	1G	2e	1cc
.	.	.	2.g	.
1AA	.	1A	.	[1cc
.	.	.	4f	.
.	.	.	[2f	.
=65	=65	=65	=65	=65
1C	1c	1G	2f]	1cc]
.	.	.	2e	.
[1FF	1c	[1F	[1f	1a
=66	=66	=66	=66	=66
1FF]	1A	1F]	1f]	1cc
1r	1B-	1r	[1f	1dd
=67	=67	=67	=67	=67
1F	1A	1c	1f]	1cc
1BB-	2.F	1d	1f	1b-
.	4G	.	.	.
=68	=68	=68	=68	=68
1FF	1A	1c	1f	1a
4GG	2r	1B-	[1d	1g
4AA	.	.	.	.
4BB-	4D	.	.	.
4C	4E	.	.	.
=69	=69	=69	=69	=69
4D	4F	1A	2d]	1f
4E	4G	.	.	.
2F	4A	.	4c	.
.	4B-	.	4d	.
2C	[1c	1G	4e	1r
.	.	.	4d	.
2C	.	.	4c	.
.	.	.	4B-	.
=70	=70	=70	=70	=70
1FF	2c]	1F	4A	1c
.	.	.	4B-	.
.	2A	.	1c	.
1r	1G	2r	.	1d
.	.	[2G	2B	.
=71	=71	=71	=71	=71
1C	0r	2G]	1c	1e
.	.	1A	.	.
1D	.	.	1F	1f
.	.	2B-	.	.
=72	=72	=72	=72	=72
1E	1C	2G	1c	1g
.	.	2c	.	.
1F	1D	1A	2r	2f
.	.	.	2F	[2a
=73	=73	=73	=73	=73
1C	1E	1c	1G	2a]
.	.	.	.	1g
1FF	1F	2c	1A	.
.	.	2A	.	[2f
=74	=74	=74	=74	=74
0C	0G	2G	1c	2f]
.	.	2.c	.	4e
.	.	.	.	4d
.	.	.	1c	1e
.	.	4B-	.	.
.	.	2G	.	.
=75	=75	=75	=75	=75
[0FF	[0F	[0A	[0c	[0f
=76	=76	=76	=76	=76
0FF]	0F]	0A]	0c]	0f]
*-	*-	*-	*-	*-
!!!CDT: 1525/^1526/-1594/2/2
!!!OCY: Italia
!!!AGN: Mass (Paraphrase)
!!!AST: renaissance, vocal
!!!ASW: Gregorian Mass
!!!PWK: Masses, Book Mantuan II
!!!RNB: Cadence finals: C
!!!YOR: Le Opere Complete, v. 19, p. 129
!!!YOO: Rome, Italy: Fratelli Scalera
!!!END: 1992//
!!!EED: John Miller
!!!YEC: Copyright 2000, John Miller
!!!YEN: United States of America
!!!YEM: Rights to all derivative electronic formats reserved.
!!!YEM: Refer to licensing agreement for further details.
!!!YEM: This file must be accompanied by the licensing agreement.
!!!YEM: A copy of the licensing agreement may be found at http://www.music-cog.ohio-state.edu/HumdrumDatabases/Palestrina/license.txt
!!!EMD: converted to Humdrum by Bret Aarden
